packages/kaspersky-hexa-ui-icons/src/iconsSVGs/28x20/FlagVc.svg

<svg xmlns="http://www.w3.org/2000/svg" width="28" height="20" fill="none" viewBox="0 0 28 20"><g clip-path="url(#a)"><rect width="28" height="20" fill="#fff" rx="2"/><mask id="b" width="28" height="20" x="0" y="0" maskUnits="userSpaceOnUse" style="mask-type:luminance"><rect width="28" height="20" fill="#fff" rx="2"/></mask><g mask="url(#b)"><path fill="#08c47a" d="M13.3333 0H28v20H13.3333z"/><path fill="#0c87e1" fill-rule="evenodd" d="M0 20h9.3333V0H0z" clip-rule="evenodd"/><path fill="#fecb2f" fill-rule="evenodd" d="M8 20h12V0H8z" clip-rule="evenodd"/><path fill="#08c47a" fill-rule="evenodd" d="m9.3333 8 2-4 2 4-2 4zm5.3334 0 2-4 2 4-2 4zM14 9.3333l-2 4 2 4 2-4z" clip-rule="evenodd"/></g></g><defs><clipPath id="a"><path fill="#fff" d="M0 0h28v20H0z"/></clipPath></defs></svg>

<svg width="28" height="20" viewBox="0 0 28 20" fill="none" xmlns="http://www.w3.org/2000/svg">
<g clip-path="url(#clip0_5138_2066)">
<rect width="28" height="20" rx="2" fill="white"/>
<mask id="mask0_5138_2066" style="mask-type:luminance" maskUnits="userSpaceOnUse" x="0" y="0" width="28" height="20">
<rect width="28" height="20" rx="2" fill="white"/>
</mask>
<g mask="url(#mask0_5138_2066)">
<rect x="13.3333" width="14.6667" height="20" fill="#08C47A"/>
<path fill-rule="evenodd" clip-rule="evenodd" d="M0 20H9.33333V0H0V20Z" fill="#0C87E1"/>
<path fill-rule="evenodd" clip-rule="evenodd" d="M8 20H20V0H8V20Z" fill="#FECB2F"/>
<path fill-rule="evenodd" clip-rule="evenodd" d="M9.33334 8L11.3333 4L13.3333 8L11.3333 12L9.33334 8ZM14.6667 8L16.6667 4L18.6667 8L16.6667 12L14.6667 8ZM14 9.33333L12 13.3333L14 17.3333L16 13.3333L14 9.33333Z" fill="#08C47A"/>
</g>
</g>
<defs>
<clipPath id="clip0_5138_2066">
<rect width="28" height="20" fill="white"/>
</clipPath>
</defs>
</svg>
